Obsidian-SemiLight/actions/16s/view-table-of-contents-rtl.svg

<svg viewBox="0 0 16 16" xmlns="http://www.w3.org/2000/svg"><path d="m2 3v1h1v2h-1v1h3v-1h-1v-2h1v-1zm6 0v1h6v-1zm-2 2v1h1v-1zm2 0v1h1v-1zm2 0v1h1v-1zm-8 4v1h1v2h-1v1h2 1 2v-1h-1v-2h1v-1h-2-1zm8 0v1h4v-1zm-6 1h1v2h-1zm4 1v1h1v-1zm2 0v1h1v-1zm2 0v1h1v-1z" fill="#4d4d4d"/></svg>

<svg xmlns="http://www.w3.org/2000/svg" viewBox="0 0 16 16">
  <defs id="defs3051">
    <style type="text/css" id="current-color-scheme">
      .ColorScheme-Text {
        color:#4d4d4d;
      }
      </style>
  </defs>
 <path style="fill:currentColor;fill-opacity:1;stroke:none" 
       d="M 2 3 L 2 4 L 3 4 L 3 6 L 2 6 L 2 7 L 5 7 L 5 6 L 4 6 L 4 4 L 5 4 L 5 3 L 2 3 z M 8 3 L 8 4 L 14 4 L 14 3 L 8 3 z M 6 5 L 6 6 L 7 6 L 7 5 L 6 5 z M 8 5 L 8 6 L 9 6 L 9 5 L 8 5 z M 10 5 L 10 6 L 11 6 L 11 5 L 10 5 z M 2 9 L 2 10 L 3 10 L 3 12 L 2 12 L 2 13 L 4 13 L 5 13 L 7 13 L 7 12 L 6 12 L 6 10 L 7 10 L 7 9 L 5 9 L 4 9 L 2 9 z M 10 9 L 10 10 L 14 10 L 14 9 L 10 9 z M 4 10 L 5 10 L 5 12 L 4 12 L 4 10 z M 8 11 L 8 12 L 9 12 L 9 11 L 8 11 z M 10 11 L 10 12 L 11 12 L 11 11 L 10 11 z M 12 11 L 12 12 L 13 12 L 13 11 L 12 11 z "
     class="ColorScheme-Text"
     />
</svg>
